icon/lg/doctrine.svg

<?xml version="1.0" encoding="UTF-8" standalone="no"?>
<svg viewBox="0 0 256 339" version="1.1" xmlns="http://www.w3.org/2000/svg" xmlns:xlink="http://www.w3.org/1999/xlink" preserveAspectRatio="xMidYMid" height="1em" width="1em">
  <g>
    <path d="M208.493,111.5005 C208.199,111.1825 207.931,110.8485 207.621,110.5395 L106.545,9.9055 C94.453,-2.1325 74.89,-2.0925 62.85,10.0005 C50.81,22.0935 50.853,41.6555 62.945,53.6945 L96.348,86.9515 C40.966,101.0405 0,151.2325 0,210.9995 C0,281.6925 57.308,338.9995 128,338.9995 C198.692,338.9995 256,281.6925 256,210.9995 C256,170.8115 237.465,134.9675 208.493,111.5005" fill="#FE8439"/>
    <path d="M203.6328,195.181 L130.5848,123.016 C120.8738,113.422 105.2258,113.521 95.6298,123.228 C86.0358,132.94 86.1308,148.59 95.8428,158.184 L126.0728,188.048 L62.2348,188.048 C48.5828,188.048 37.5168,199.114 37.5168,212.765 C37.5168,226.417 48.5828,237.483 62.2348,237.483 L126.7278,237.483 L96.0118,268.39 C86.3898,278.072 86.4398,293.722 96.1208,303.347 C100.9428,308.138 107.2448,310.531 113.5448,310.531 C119.8948,310.531 126.2468,308.098 131.0778,303.238 L201.8088,232.065 C201.9388,231.935 202.0478,231.791 202.1738,231.658 C205.1608,229.144 207.5798,225.921 209.1258,222.155 C212.9348,212.881 210.7638,202.228 203.6328,195.181" fill="#FFFFFF"/>
  </g>
</svg>

<svg width="256" height="339" xmlns="http://www.w3.org/2000/svg" preserveAspectRatio="xMidYMid"><path d="M208.493 111.5c-.294-.317-.562-.651-.872-.96L106.545 9.904C94.453-2.131 74.89-2.091 62.85 10.002c-12.04 12.092-11.997 31.655.095 43.694L96.348 86.95C40.966 101.041 0 151.233 0 211c0 70.692 57.308 128 128 128 70.692 0 128-57.308 128-128 0-40.189-18.535-76.032-47.507-99.5" fill="#FE8439"/><path d="m203.633 195.181-73.048-72.165c-9.711-9.594-25.36-9.495-34.955.212-9.594 9.712-9.5 25.362.213 34.956l30.23 29.864H62.235c-13.652 0-24.718 11.066-24.718 24.717 0 13.652 11.066 24.718 24.718 24.718h64.493L96.012 268.39c-9.622 9.682-9.572 25.332.109 34.957a24.644 24.644 0 0 0 17.424 7.184c6.35 0 12.702-2.433 17.533-7.293l70.73-71.173c.13-.13.24-.274.366-.407a24.648 24.648 0 0 0 6.952-9.503 24.718 24.718 0 0 0-5.493-26.974" fill="#FFF"/></svg>
